packages/ui-icons/svg/Line/filmstrip.svg

<svg viewBox="0 0 1920 1920" version="1.1" xmlns="http://www.w3.org/2000/svg">
    <path d="M1813.33333,1557.19467 C1255.57333,1684.02133 664.853333,1684.02133 106.666667,1557.19467 L106.666667,468.448 C664.426667,341.621333 1255.14667,341.514667 1813.33333,468.448 L1813.33333,1557.19467 Z M1879.04,374.261333 C1278.72,230.688 640.64,230.794667 40.96,374.261333 L0,384.074667 L0,1641.568 L40.96,1651.38133 C341.013333,1723.168 650.24,1759.43467 960,1759.43467 C1269.86667,1759.43467 1579.2,1723.168 1879.04,1651.38133 L1920,1641.568 L1920,384.074667 L1879.04,374.261333 Z M853.333333,786.986667 L1229.65333,1012.8 L853.333333,1238.61333 L853.333333,786.986667 Z M746.666667,1426.98667 L1437.01333,1012.8 L746.666667,598.613333 L746.666667,1426.98667 Z" stroke="none" stroke-width="1" fill-rule="evenodd"/>
</svg>

<svg viewBox="0 0 1920 1920" version="1.1" xmlns="http://www.w3.org/2000/svg">
    <path d="M1813.333 1557.195c-557.76 126.826-1148.48 126.826-1706.666 0V468.448c557.76-126.827 1148.48-126.933 1706.666 0v1088.747zM1879.04 374.26c-600.32-143.573-1238.4-143.466-1838.08 0L0 384.075v1257.493l40.96 9.813c300.053 71.787 609.28 108.054 919.04 108.054 309.867 0 619.2-36.267 919.04-108.054l40.96-9.813V384.075l-40.96-9.814zM853.333 786.987l376.32 225.813-376.32 225.813V786.987zm-106.666 640l690.346-414.187-690.346-414.187v828.374z" stroke="none" stroke-width="1" fill-rule="evenodd"/>
</svg>
